(Generated by PartKam Version 0.05)

G20 G90 G40

(profile 1)
G0 Z0.5
T0 M6
G17
M3
G0 X10.4611 Y9.7538
G1 Z-0.1 F30
G3 X10.3445 Y9.9432 I-1.2926 J-0.6651 F60
G3 X10.2004 Y10.1125 I-1.1761 J-0.8545
G3 X10.0414 Y10.2489 I-0.9243 J-0.917
G3 X9.8626 Y10.358 I-0.7653 J-1.0534
G3 X9.657 Y10.4427 I-0.6548 J-1.2979
G3 X9.4409 Y10.495 I-0.4492 J-1.3825
G3 X9.2321 Y10.5118 I-0.2088 J-1.2852
G3 X9.0233 Y10.495 I0 J-1.302
G3 X8.8072 Y10.4427 I0.2331 J-1.4349
G3 X8.6016 Y10.358 I0.4492 J-1.3825
G3 X8.4228 Y10.2489 I0.5865 J-1.1625
G3 X8.2638 Y10.1125 I0.7653 J-1.0534
G3 X8.1197 Y9.9432 I1.032 J-1.0238
G3 X8.0031 Y9.7538 I1.1761 J-0.8545
G3 X7.9226 Y9.5604 I1.1578 J-0.5957
G3 X7.8741 Y9.3567 I1.2383 J-0.4024
G3 X7.8571 Y9.135 I1.4367 J-0.2217
G1 X7.8571 Y9.135
G1 X7.8571 Y9.135
G3 X7.8741 Y8.9133 I1.4537 J0
G3 X7.9226 Y8.7095 I1.2868 J0.1986
G3 X8.0031 Y8.5161 I1.2383 J0.4024
G3 X8.1197 Y8.3268 I1.2926 J0.6651
G3 X8.2638 Y8.1574 I1.1761 J0.8545
G3 X8.4228 Y8.021 I0.9243 J0.917
G3 X8.6016 Y7.9119 I0.7653 J1.0534
G3 X8.8072 Y7.8273 I0.6548 J1.2979
G3 X9.0233 Y7.7749 I0.4492 J1.3825
G3 X9.2321 Y7.7581 I0.2088 J1.2852
G3 X9.4409 Y7.7749 I0 J1.302
G3 X9.657 Y7.8273 I-0.2331 J1.4349
G3 X9.8626 Y7.9119 I-0.4492 J1.3825
G3 X10.0414 Y8.021 I-0.5865 J1.1625
G3 X10.2004 Y8.1574 I-0.7653 J1.0534
G3 X10.3445 Y8.3268 I-1.032 J1.0238
G3 X10.4611 Y8.5161 I-1.1761 J0.8545
G3 X10.5416 Y8.7095 I-1.1578 J0.5957
G3 X10.5901 Y8.9133 I-1.2383 J0.4024
G3 X10.6071 Y9.135 I-1.4367 J0.2217
G1 X10.6071 Y9.135
G1 X10.6071 Y9.135
G3 X10.5901 Y9.3567 I-1.4537 J0
G3 X10.5416 Y9.5604 I-1.2868 J-0.1986
G3 X10.4611 Y9.7538 I-1.2383 J-0.4024
G1 Z-0.2 F30
G3 X10.3445 Y9.9432 I-1.2926 J-0.6651 F60
G3 X10.2004 Y10.1125 I-1.1761 J-0.8545
G3 X10.0414 Y10.2489 I-0.9243 J-0.917
G3 X9.8626 Y10.358 I-0.7653 J-1.0534
G3 X9.657 Y10.4427 I-0.6548 J-1.2979
G3 X9.4409 Y10.495 I-0.4492 J-1.3825
G3 X9.2321 Y10.5118 I-0.2088 J-1.2852
G3 X9.0233 Y10.495 I0 J-1.302
G3 X8.8072 Y10.4427 I0.2331 J-1.4349
G3 X8.6016 Y10.358 I0.4492 J-1.3825
G3 X8.4228 Y10.2489 I0.5865 J-1.1625
G3 X8.2638 Y10.1125 I0.7653 J-1.0534
G3 X8.1197 Y9.9432 I1.032 J-1.0238
G3 X8.0031 Y9.7538 I1.1761 J-0.8545
G3 X7.9226 Y9.5604 I1.1578 J-0.5957
G3 X7.8741 Y9.3567 I1.2383 J-0.4024
G3 X7.8571 Y9.135 I1.4367 J-0.2217
G1 X7.8571 Y9.135
G1 X7.8571 Y9.135
G3 X7.8741 Y8.9133 I1.4537 J0
G3 X7.9226 Y8.7095 I1.2868 J0.1986
G3 X8.0031 Y8.5161 I1.2383 J0.4024
G3 X8.1197 Y8.3268 I1.2926 J0.6651
G3 X8.2638 Y8.1574 I1.1761 J0.8545
G3 X8.4228 Y8.021 I0.9243 J0.917
G3 X8.6016 Y7.9119 I0.7653 J1.0534
G3 X8.8072 Y7.8273 I0.6548 J1.2979
G3 X9.0233 Y7.7749 I0.4492 J1.3825
G3 X9.2321 Y7.7581 I0.2088 J1.2852
G3 X9.4409 Y7.7749 I0 J1.302
G3 X9.657 Y7.8273 I-0.2331 J1.4349
G3 X9.8626 Y7.9119 I-0.4492 J1.3825
G3 X10.0414 Y8.021 I-0.5865 J1.1625
G3 X10.2004 Y8.1574 I-0.7653 J1.0534
G3 X10.3445 Y8.3268 I-1.032 J1.0238
G3 X10.4611 Y8.5161 I-1.1761 J0.8545
G3 X10.5416 Y8.7095 I-1.1578 J0.5957
G3 X10.5901 Y8.9133 I-1.2383 J0.4024
G3 X10.6071 Y9.135 I-1.4367 J0.2217
G1 X10.6071 Y9.135
G1 X10.6071 Y9.135
G3 X10.5901 Y9.3567 I-1.4537 J0
G3 X10.5416 Y9.5604 I-1.2868 J-0.1986
G3 X10.4611 Y9.7538 I-1.2383 J-0.4024
G1 Z-0.3 F30
G3 X10.3445 Y9.9432 I-1.2926 J-0.6651 F60
G3 X10.2004 Y10.1125 I-1.1761 J-0.8545
G3 X10.0414 Y10.2489 I-0.9243 J-0.917
G3 X9.8626 Y10.358 I-0.7653 J-1.0534
G3 X9.657 Y10.4427 I-0.6548 J-1.2979
G3 X9.4409 Y10.495 I-0.4492 J-1.3825
G3 X9.2321 Y10.5118 I-0.2088 J-1.2852
G3 X9.0233 Y10.495 I0 J-1.302
G3 X8.8072 Y10.4427 I0.2331 J-1.4349
G3 X8.6016 Y10.358 I0.4492 J-1.3825
G3 X8.4228 Y10.2489 I0.5865 J-1.1625
G3 X8.2638 Y10.1125 I0.7653 J-1.0534
G3 X8.1197 Y9.9432 I1.032 J-1.0238
G3 X8.0031 Y9.7538 I1.1761 J-0.8545
G3 X7.9226 Y9.5604 I1.1578 J-0.5957
G3 X7.8741 Y9.3567 I1.2383 J-0.4024
G3 X7.8571 Y9.135 I1.4367 J-0.2217
G1 X7.8571 Y9.135
G1 X7.8571 Y9.135
G3 X7.8741 Y8.9133 I1.4537 J0
G3 X7.9226 Y8.7095 I1.2868 J0.1986
G3 X8.0031 Y8.5161 I1.2383 J0.4024
G3 X8.1197 Y8.3268 I1.2926 J0.6651
G3 X8.2638 Y8.1574 I1.1761 J0.8545
G3 X8.4228 Y8.021 I0.9243 J0.917
G3 X8.6016 Y7.9119 I0.7653 J1.0534
G3 X8.8072 Y7.8273 I0.6548 J1.2979
G3 X9.0233 Y7.7749 I0.4492 J1.3825
G3 X9.2321 Y7.7581 I0.2088 J1.2852
G3 X9.4409 Y7.7749 I0 J1.302
G3 X9.657 Y7.8273 I-0.2331 J1.4349
G3 X9.8626 Y7.9119 I-0.4492 J1.3825
G3 X10.0414 Y8.021 I-0.5865 J1.1625
G3 X10.2004 Y8.1574 I-0.7653 J1.0534
G3 X10.3445 Y8.3268 I-1.032 J1.0238
G3 X10.4611 Y8.5161 I-1.1761 J0.8545
G3 X10.5416 Y8.7095 I-1.1578 J0.5957
G3 X10.5901 Y8.9133 I-1.2383 J0.4024
G3 X10.6071 Y9.135 I-1.4367 J0.2217
G1 X10.6071 Y9.135
G1 X10.6071 Y9.135
G3 X10.5901 Y9.3567 I-1.4537 J0
G3 X10.5416 Y9.5604 I-1.2868 J-0.1986
G3 X10.4611 Y9.7538 I-1.2383 J-0.4024
G1 Z-0.38 F30
G3 X10.3445 Y9.9432 I-1.2926 J-0.6651 F60
G3 X10.2004 Y10.1125 I-1.1761 J-0.8545
G3 X10.0414 Y10.2489 I-0.9243 J-0.917
G3 X9.8626 Y10.358 I-0.7653 J-1.0534
G3 X9.657 Y10.4427 I-0.6548 J-1.2979
G3 X9.4409 Y10.495 I-0.4492 J-1.3825
G3 X9.2321 Y10.5118 I-0.2088 J-1.2852
G3 X9.0233 Y10.495 I0 J-1.302
G3 X8.8072 Y10.4427 I0.2331 J-1.4349
G3 X8.6016 Y10.358 I0.4492 J-1.3825
G3 X8.4228 Y10.2489 I0.5865 J-1.1625
G3 X8.2638 Y10.1125 I0.7653 J-1.0534
G3 X8.1197 Y9.9432 I1.032 J-1.0238
G3 X8.0031 Y9.7538 I1.1761 J-0.8545
G3 X7.9226 Y9.5604 I1.1578 J-0.5957
G3 X7.8741 Y9.3567 I1.2383 J-0.4024
G3 X7.8571 Y9.135 I1.4367 J-0.2217
G1 X7.8571 Y9.135
G1 X7.8571 Y9.135
G3 X7.8741 Y8.9133 I1.4537 J0
G3 X7.9226 Y8.7095 I1.2868 J0.1986
G3 X8.0031 Y8.5161 I1.2383 J0.4024
G3 X8.1197 Y8.3268 I1.2926 J0.6651
G3 X8.2638 Y8.1574 I1.1761 J0.8545
G3 X8.4228 Y8.021 I0.9243 J0.917
G3 X8.6016 Y7.9119 I0.7653 J1.0534
G3 X8.8072 Y7.8273 I0.6548 J1.2979
G3 X9.0233 Y7.7749 I0.4492 J1.3825
G3 X9.2321 Y7.7581 I0.2088 J1.2852
G3 X9.4409 Y7.7749 I0 J1.302
G3 X9.657 Y7.8273 I-0.2331 J1.4349
G3 X9.8626 Y7.9119 I-0.4492 J1.3825
G3 X10.0414 Y8.021 I-0.5865 J1.1625
G3 X10.2004 Y8.1574 I-0.7653 J1.0534
G3 X10.3445 Y8.3268 I-1.032 J1.0238
G3 X10.4611 Y8.5161 I-1.1761 J0.8545
G3 X10.5416 Y8.7095 I-1.1578 J0.5957
G3 X10.5901 Y8.9133 I-1.2383 J0.4024
G3 X10.6071 Y9.135 I-1.4367 J0.2217
G1 X10.6071 Y9.135
G1 X10.6071 Y9.135
G3 X10.5901 Y9.3567 I-1.4537 J0
G3 X10.5416 Y9.5604 I-1.2868 J-0.1986
G3 X10.4611 Y9.7538 I-1.2383 J-0.4024

(profile 2)
G0 Z0.15
G0 X9.2321 Y18.26
G1 Z-0.15 F30
G3 X8.2927 Y18.217 I0 J-10.2818 F60
G3 X7.413 Y18.093 I0.8372 J-9.1256
G3 X6.5497 Y17.8827 I1.6484 J-8.6422
G3 X5.7293 Y17.5914 I2.4096 J-8.0891
G3 X4.9433 Y17.2173 I3.23 J-7.7979
G3 X4.1841 Y16.7556 I4.1862 J-7.7383
G3 X3.4744 Y16.2211 I5.151 J-7.5792
G3 X2.7798 Y15.5873 I6.5757 J-7.9042
G3 X2.1459 Y14.8927 I7.2704 J-7.2704
G3 X1.6115 Y14.1829 I7.0448 J-5.8607
G3 X1.1498 Y13.4238 I7.2766 J-4.9453
G3 X0.7756 Y12.6377 I7.4237 J-4.016
G3 X0.4844 Y11.8174 I7.7979 J-3.23
G3 X0.2741 Y10.9541 I8.4319 J-2.5117
G3 X0.1501 Y10.0743 I9.0016 J-1.717
G3 X0.1071 Y9.135 I10.2388 J-0.9394
G3 X0.1501 Y8.1956 I10.2818 J0
G3 X0.2741 Y7.3158 I9.1256 J0.8372
G3 X0.4844 Y6.4526 I8.6422 J1.6484
G3 X0.7756 Y5.6322 I8.0891 J2.4096
G3 X1.1498 Y4.8462 I7.7979 J3.23
G3 X1.6115 Y4.087 I7.7383 J4.1862
G3 X2.1459 Y3.3773 I7.5792 J5.151
G3 X2.7798 Y2.6826 I7.9042 J6.5757
G3 X3.4744 Y2.0488 I7.2704 J7.2704
G3 X4.1841 Y1.5143 I5.8607 J7.0448
G3 X4.9433 Y1.0527 I4.9453 J7.2766
G3 X5.7293 Y0.6785 I4.016 J7.4237
G3 X6.5497 Y0.3873 I3.23 J7.7979
G3 X7.413 Y0.1769 I2.5117 J8.4319
G3 X8.2927 Y0.053 I1.717 J9.0016
G3 X9.2321 Y0.01 I0.9394 J10.2388
G3 X10.1715 Y0.053 I0 J10.2818
G3 X11.0512 Y0.1769 I-0.8372 J9.1256
G3 X11.9145 Y0.3873 I-1.6484 J8.6422
G3 X12.7349 Y0.6785 I-2.4096 J8.0891
G3 X13.5209 Y1.0527 I-3.23 J7.7979
G3 X14.2801 Y1.5143 I-4.1862 J7.7383
G3 X14.9898 Y2.0488 I-5.151 J7.5792
G3 X15.6845 Y2.6826 I-6.5757 J7.9042
G3 X16.3183 Y3.3773 I-7.2704 J7.2704
G3 X16.8527 Y4.087 I-7.0448 J5.8607
G3 X17.3144 Y4.8462 I-7.2766 J4.9453
G3 X17.6886 Y5.6322 I-7.4237 J4.016
G3 X17.9798 Y6.4526 I-7.7979 J3.23
G3 X18.1901 Y7.3158 I-8.4319 J2.5117
G3 X18.3141 Y8.1956 I-9.0016 J1.717
G3 X18.3571 Y9.135 I-10.2388 J0.9394
G3 X18.3141 Y10.0743 I-10.2818 J0
G3 X18.1901 Y10.9541 I-9.1256 J-0.8372
G3 X17.9798 Y11.8174 I-8.6422 J-1.6484
G3 X17.6886 Y12.6377 I-8.0891 J-2.4096
G3 X17.3144 Y13.4238 I-7.7979 J-3.23
G3 X16.8527 Y14.1829 I-7.7383 J-4.1862
G3 X16.3183 Y14.8927 I-7.5792 J-5.151
G3 X15.6845 Y15.5873 I-7.9042 J-6.5757
G3 X14.9898 Y16.2211 I-7.2704 J-7.2704
G3 X14.2801 Y16.7556 I-5.8607 J-7.0448
G3 X13.5209 Y17.2173 I-4.9453 J-7.2766
G3 X12.7349 Y17.5914 I-4.016 J-7.4237
G3 X11.9145 Y17.8827 I-3.23 J-7.7979
G3 X11.0512 Y18.093 I-2.5117 J-8.4319
G3 X10.1715 Y18.217 I-1.717 J-9.0016
G3 X9.2321 Y18.26 I-0.9394 J-10.2388
G1 Z-0.3 F30
G3 X8.2927 Y18.217 I0 J-10.2818 F60
G3 X7.413 Y18.093 I0.8372 J-9.1256
G3 X6.5497 Y17.8827 I1.6484 J-8.6422
G3 X5.7293 Y17.5914 I2.4096 J-8.0891
G3 X4.9433 Y17.2173 I3.23 J-7.7979
G3 X4.1841 Y16.7556 I4.1862 J-7.7383
G3 X3.4744 Y16.2211 I5.151 J-7.5792
G3 X2.7798 Y15.5873 I6.5757 J-7.9042
G3 X2.1459 Y14.8927 I7.2704 J-7.2704
G3 X1.6115 Y14.1829 I7.0448 J-5.8607
G3 X1.1498 Y13.4238 I7.2766 J-4.9453
G3 X0.7756 Y12.6377 I7.4237 J-4.016
G3 X0.4844 Y11.8174 I7.7979 J-3.23
G3 X0.2741 Y10.9541 I8.4319 J-2.5117
G3 X0.1501 Y10.0743 I9.0016 J-1.717
G3 X0.1071 Y9.135 I10.2388 J-0.9394
G3 X0.1501 Y8.1956 I10.2818 J0
G3 X0.2741 Y7.3158 I9.1256 J0.8372
G3 X0.4844 Y6.4526 I8.6422 J1.6484
G3 X0.7756 Y5.6322 I8.0891 J2.4096
G3 X1.1498 Y4.8462 I7.7979 J3.23
G3 X1.6115 Y4.087 I7.7383 J4.1862
G3 X2.1459 Y3.3773 I7.5792 J5.151
G3 X2.7798 Y2.6826 I7.9042 J6.5757
G3 X3.4744 Y2.0488 I7.2704 J7.2704
G3 X4.1841 Y1.5143 I5.8607 J7.0448
G3 X4.9433 Y1.0527 I4.9453 J7.2766
G3 X5.7293 Y0.6785 I4.016 J7.4237
G3 X6.5497 Y0.3873 I3.23 J7.7979
G3 X7.413 Y0.1769 I2.5117 J8.4319
G3 X8.2927 Y0.053 I1.717 J9.0016
G3 X9.2321 Y0.01 I0.9394 J10.2388
G3 X10.1715 Y0.053 I0 J10.2818
G3 X11.0512 Y0.1769 I-0.8372 J9.1256
G3 X11.9145 Y0.3873 I-1.6484 J8.6422
G3 X12.7349 Y0.6785 I-2.4096 J8.0891
G3 X13.5209 Y1.0527 I-3.23 J7.7979
G3 X14.2801 Y1.5143 I-4.1862 J7.7383
G3 X14.9898 Y2.0488 I-5.151 J7.5792
G3 X15.6845 Y2.6826 I-6.5757 J7.9042
G3 X16.3183 Y3.3773 I-7.2704 J7.2704
G3 X16.8527 Y4.087 I-7.0448 J5.8607
G3 X17.3144 Y4.8462 I-7.2766 J4.9453
G3 X17.6886 Y5.6322 I-7.4237 J4.016
G3 X17.9798 Y6.4526 I-7.7979 J3.23
G3 X18.1901 Y7.3158 I-8.4319 J2.5117
G3 X18.3141 Y8.1956 I-9.0016 J1.717
G3 X18.3571 Y9.135 I-10.2388 J0.9394
G3 X18.3141 Y10.0743 I-10.2818 J0
G3 X18.1901 Y10.9541 I-9.1256 J-0.8372
G3 X17.9798 Y11.8174 I-8.6422 J-1.6484
G3 X17.6886 Y12.6377 I-8.0891 J-2.4096
G3 X17.3144 Y13.4238 I-7.7979 J-3.23
G3 X16.8527 Y14.1829 I-7.7383 J-4.1862
G3 X16.3183 Y14.8927 I-7.5792 J-5.151
G3 X15.6845 Y15.5873 I-7.9042 J-6.5757
G3 X14.9898 Y16.2211 I-7.2704 J-7.2704
G3 X14.2801 Y16.7556 I-5.8607 J-7.0448
G3 X13.5209 Y17.2173 I-4.9453 J-7.2766
G3 X12.7349 Y17.5914 I-4.016 J-7.4237
G3 X11.9145 Y17.8827 I-3.23 J-7.7979
G3 X11.0512 Y18.093 I-2.5117 J-8.4319
G3 X10.1715 Y18.217 I-1.717 J-9.0016
G3 X9.2321 Y18.26 I-0.9394 J-10.2388
G1 Z-0.38 F30
G3 X8.2927 Y18.217 I0 J-10.2818 F60
G3 X7.413 Y18.093 I0.8372 J-9.1256
G3 X6.5497 Y17.8827 I1.6484 J-8.6422
G3 X5.7293 Y17.5914 I2.4096 J-8.0891
G3 X4.9433 Y17.2173 I3.23 J-7.7979
G3 X4.1841 Y16.7556 I4.1862 J-7.7383
G3 X3.4744 Y16.2211 I5.151 J-7.5792
G3 X2.7798 Y15.5873 I6.5757 J-7.9042
G3 X2.1459 Y14.8927 I7.2704 J-7.2704
G3 X1.6115 Y14.1829 I7.0448 J-5.8607
G3 X1.1498 Y13.4238 I7.2766 J-4.9453
G3 X0.7756 Y12.6377 I7.4237 J-4.016
G3 X0.4844 Y11.8174 I7.7979 J-3.23
G3 X0.2741 Y10.9541 I8.4319 J-2.5117
G3 X0.1501 Y10.0743 I9.0016 J-1.717
G3 X0.1071 Y9.135 I10.2388 J-0.9394
G3 X0.1501 Y8.1956 I10.2818 J0
G3 X0.2741 Y7.3158 I9.1256 J0.8372
G3 X0.4844 Y6.4526 I8.6422 J1.6484
G3 X0.7756 Y5.6322 I8.0891 J2.4096
G3 X1.1498 Y4.8462 I7.7979 J3.23
G3 X1.6115 Y4.087 I7.7383 J4.1862
G3 X2.1459 Y3.3773 I7.5792 J5.151
G3 X2.7798 Y2.6826 I7.9042 J6.5757
G3 X3.4744 Y2.0488 I7.2704 J7.2704
G3 X4.1841 Y1.5143 I5.8607 J7.0448
G3 X4.9433 Y1.0527 I4.9453 J7.2766
G3 X5.7293 Y0.6785 I4.016 J7.4237
G3 X6.5497 Y0.3873 I3.23 J7.7979
G3 X7.413 Y0.1769 I2.5117 J8.4319
G3 X8.2927 Y0.053 I1.717 J9.0016
G3 X9.2321 Y0.01 I0.9394 J10.2388
G3 X10.1715 Y0.053 I0 J10.2818
G3 X11.0512 Y0.1769 I-0.8372 J9.1256
G3 X11.9145 Y0.3873 I-1.6484 J8.6422
G3 X12.7349 Y0.6785 I-2.4096 J8.0891
G3 X13.5209 Y1.0527 I-3.23 J7.7979
G3 X14.2801 Y1.5143 I-4.1862 J7.7383
G3 X14.9898 Y2.0488 I-5.151 J7.5792
G3 X15.6845 Y2.6826 I-6.5757 J7.9042
G3 X16.3183 Y3.3773 I-7.2704 J7.2704
G3 X16.8527 Y4.087 I-7.0448 J5.8607
G3 X17.3144 Y4.8462 I-7.2766 J4.9453
G3 X17.6886 Y5.6322 I-7.4237 J4.016
G3 X17.9798 Y6.4526 I-7.7979 J3.23
G3 X18.1901 Y7.3158 I-8.4319 J2.5117
G3 X18.3141 Y8.1956 I-9.0016 J1.717
G3 X18.3571 Y9.135 I-10.2388 J0.9394
G3 X18.3141 Y10.0743 I-10.2818 J0
G3 X18.1901 Y10.9541 I-9.1256 J-0.8372
G3 X17.9798 Y11.8174 I-8.6422 J-1.6484
G3 X17.6886 Y12.6377 I-8.0891 J-2.4096
G3 X17.3144 Y13.4238 I-7.7979 J-3.23
G3 X16.8527 Y14.1829 I-7.7383 J-4.1862
G3 X16.3183 Y14.8927 I-7.5792 J-5.151
G3 X15.6845 Y15.5873 I-7.9042 J-6.5757
G3 X14.9898 Y16.2211 I-7.2704 J-7.2704
G3 X14.2801 Y16.7556 I-5.8607 J-7.0448
G3 X13.5209 Y17.2173 I-4.9453 J-7.2766
G3 X12.7349 Y17.5914 I-4.016 J-7.4237
G3 X11.9145 Y17.8827 I-3.23 J-7.7979
G3 X11.0512 Y18.093 I-2.5117 J-8.4319
G3 X10.1715 Y18.217 I-1.717 J-9.0016
G3 X9.2321 Y18.26 I-0.9394 J-10.2388

(profile 3)
G0 Z0.3
G0 X9.8219 Y1.5052
G1 Z-0.1 F30
G3 X10.0367 Y1.6828 I-0.8326 J1.2251 F60
G3 X10.2144 Y1.8976 I-1.0474 J1.0474
G3 X10.3384 Y2.1274 I-1.0593 J0.7199
G3 X10.4132 Y2.3776 I-1.1833 J0.4901
G3 X10.4394 Y2.6551 I-1.455 J0.2775
G3 X10.4132 Y2.9326 I-1.4812 J0
G3 X10.3384 Y3.1828 I-1.2581 J-0.24
G3 X10.2144 Y3.4126 I-1.1833 J-0.4901
G3 X10.0367 Y3.6274 I-1.2251 J-0.8326
G3 X9.8219 Y3.8051 I-1.0474 J-1.0474
G3 X9.5921 Y3.9291 I-0.7199 J-1.0593
G3 X9.342 Y4.0039 I-0.4901 J-1.1833
G3 X9.0644 Y4.0301 I-0.2775 J-1.455
G3 X8.7869 Y4.0039 I0 J-1.4812
G3 X8.5368 Y3.9291 I0.24 J-1.2581
G3 X8.307 Y3.8051 I0.4901 J-1.1833
G3 X8.0922 Y3.6274 I0.8326 J-1.2251
G3 X7.9145 Y3.4126 I1.0474 J-1.0474
G3 X7.7905 Y3.1828 I1.0593 J-0.7199
G3 X7.7157 Y2.9326 I1.1833 J-0.4901
G3 X7.6894 Y2.6551 I1.455 J-0.2775
G3 X7.7157 Y2.3776 I1.4812 J0
G3 X7.7905 Y2.1274 I1.2581 J0.24
G3 X7.9145 Y1.8976 I1.1833 J0.4901
G3 X8.0922 Y1.6828 I1.2251 J0.8326
G3 X8.307 Y1.5052 I1.0474 J1.0474
G3 X8.5368 Y1.3812 I0.7199 J1.0593
G3 X8.7869 Y1.3063 I0.4901 J1.1833
G3 X9.0644 Y1.2801 I0.2775 J1.455
G3 X9.342 Y1.3063 I0 J1.4812
G3 X9.5921 Y1.3812 I-0.24 J1.2581
G3 X9.8219 Y1.5052 I-0.4901 J1.1833
G1 Z-0.2 F30
G3 X10.0367 Y1.6828 I-0.8326 J1.2251 F60
G3 X10.2144 Y1.8976 I-1.0474 J1.0474
G3 X10.3384 Y2.1274 I-1.0593 J0.7199
G3 X10.4132 Y2.3776 I-1.1833 J0.4901
G3 X10.4394 Y2.6551 I-1.455 J0.2775
G3 X10.4132 Y2.9326 I-1.4812 J0
G3 X10.3384 Y3.1828 I-1.2581 J-0.24
G3 X10.2144 Y3.4126 I-1.1833 J-0.4901
G3 X10.0367 Y3.6274 I-1.2251 J-0.8326
G3 X9.8219 Y3.8051 I-1.0474 J-1.0474
G3 X9.5921 Y3.9291 I-0.7199 J-1.0593
G3 X9.342 Y4.0039 I-0.4901 J-1.1833
G3 X9.0644 Y4.0301 I-0.2775 J-1.455
G3 X8.7869 Y4.0039 I0 J-1.4812
G3 X8.5368 Y3.9291 I0.24 J-1.2581
G3 X8.307 Y3.8051 I0.4901 J-1.1833
G3 X8.0922 Y3.6274 I0.8326 J-1.2251
G3 X7.9145 Y3.4126 I1.0474 J-1.0474
G3 X7.7905 Y3.1828 I1.0593 J-0.7199
G3 X7.7157 Y2.9326 I1.1833 J-0.4901
G3 X7.6894 Y2.6551 I1.455 J-0.2775
G3 X7.7157 Y2.3776 I1.4812 J0
G3 X7.7905 Y2.1274 I1.2581 J0.24
G3 X7.9145 Y1.8976 I1.1833 J0.4901
G3 X8.0922 Y1.6828 I1.2251 J0.8326
G3 X8.307 Y1.5052 I1.0474 J1.0474
G3 X8.5368 Y1.3812 I0.7199 J1.0593
G3 X8.7869 Y1.3063 I0.4901 J1.1833
G3 X9.0644 Y1.2801 I0.2775 J1.455
G3 X9.342 Y1.3063 I0 J1.4812
G3 X9.5921 Y1.3812 I-0.24 J1.2581
G3 X9.8219 Y1.5052 I-0.4901 J1.1833
G1 Z-0.3 F30
G3 X10.0367 Y1.6828 I-0.8326 J1.2251 F60
G3 X10.2144 Y1.8976 I-1.0474 J1.0474
G3 X10.3384 Y2.1274 I-1.0593 J0.7199
G3 X10.4132 Y2.3776 I-1.1833 J0.4901
G3 X10.4394 Y2.6551 I-1.455 J0.2775
G3 X10.4132 Y2.9326 I-1.4812 J0
G3 X10.3384 Y3.1828 I-1.2581 J-0.24
G3 X10.2144 Y3.4126 I-1.1833 J-0.4901
G3 X10.0367 Y3.6274 I-1.2251 J-0.8326
G3 X9.8219 Y3.8051 I-1.0474 J-1.0474
G3 X9.5921 Y3.9291 I-0.7199 J-1.0593
G3 X9.342 Y4.0039 I-0.4901 J-1.1833
G3 X9.0644 Y4.0301 I-0.2775 J-1.455
G3 X8.7869 Y4.0039 I0 J-1.4812
G3 X8.5368 Y3.9291 I0.24 J-1.2581
G3 X8.307 Y3.8051 I0.4901 J-1.1833
G3 X8.0922 Y3.6274 I0.8326 J-1.2251
G3 X7.9145 Y3.4126 I1.0474 J-1.0474
G3 X7.7905 Y3.1828 I1.0593 J-0.7199
G3 X7.7157 Y2.9326 I1.1833 J-0.4901
G3 X7.6894 Y2.6551 I1.455 J-0.2775
G3 X7.7157 Y2.3776 I1.4812 J0
G3 X7.7905 Y2.1274 I1.2581 J0.24
G3 X7.9145 Y1.8976 I1.1833 J0.4901
G3 X8.0922 Y1.6828 I1.2251 J0.8326
G3 X8.307 Y1.5052 I1.0474 J1.0474
G3 X8.5368 Y1.3812 I0.7199 J1.0593
G3 X8.7869 Y1.3063 I0.4901 J1.1833
G3 X9.0644 Y1.2801 I0.2775 J1.455
G3 X9.342 Y1.3063 I0 J1.4812
G3 X9.5921 Y1.3812 I-0.24 J1.2581
G3 X9.8219 Y1.5052 I-0.4901 J1.1833
G1 Z-0.375 F30
G3 X10.0367 Y1.6828 I-0.8326 J1.2251 F60
G3 X10.2144 Y1.8976 I-1.0474 J1.0474
G3 X10.3384 Y2.1274 I-1.0593 J0.7199
G3 X10.4132 Y2.3776 I-1.1833 J0.4901
G3 X10.4394 Y2.6551 I-1.455 J0.2775
G3 X10.4132 Y2.9326 I-1.4812 J0
G3 X10.3384 Y3.1828 I-1.2581 J-0.24
G3 X10.2144 Y3.4126 I-1.1833 J-0.4901
G3 X10.0367 Y3.6274 I-1.2251 J-0.8326
G3 X9.8219 Y3.8051 I-1.0474 J-1.0474
G3 X9.5921 Y3.9291 I-0.7199 J-1.0593
G3 X9.342 Y4.0039 I-0.4901 J-1.1833
G3 X9.0644 Y4.0301 I-0.2775 J-1.455
G3 X8.7869 Y4.0039 I0 J-1.4812
G3 X8.5368 Y3.9291 I0.24 J-1.2581
G3 X8.307 Y3.8051 I0.4901 J-1.1833
G3 X8.0922 Y3.6274 I0.8326 J-1.2251
G3 X7.9145 Y3.4126 I1.0474 J-1.0474
G3 X7.7905 Y3.1828 I1.0593 J-0.7199
G3 X7.7157 Y2.9326 I1.1833 J-0.4901
G3 X7.6894 Y2.6551 I1.455 J-0.2775
G3 X7.7157 Y2.3776 I1.4812 J0
G3 X7.7905 Y2.1274 I1.2581 J0.24
G3 X7.9145 Y1.8976 I1.1833 J0.4901
G3 X8.0922 Y1.6828 I1.2251 J0.8326
G3 X8.307 Y1.5052 I1.0474 J1.0474
G3 X8.5368 Y1.3812 I0.7199 J1.0593
G3 X8.7869 Y1.3063 I0.4901 J1.1833
G3 X9.0644 Y1.2801 I0.2775 J1.455
G3 X9.342 Y1.3063 I0 J1.4812
G3 X9.5921 Y1.3812 I-0.24 J1.2581
G3 X9.8219 Y1.5052 I-0.4901 J1.1833

(profile 4)
G0 Z0.5
G0 X7.8871 Y4.4339
G1 Z-0.13 F30
G1 X7.8358 Y9.1157 F60
G3 X7.5858 Y9.1144 I-0.125 J-0.0014
G3 X7.5858 Y9.113 I0.125 J0
G1 X7.6371 Y4.4311
G3 X7.8871 Y4.4325 I0.125 J0.0014
G3 X7.8871 Y4.4339 I-0.125 J0
G1 Z-0.26 F30
G1 X7.8358 Y9.1157 F60
G3 X7.5858 Y9.1144 I-0.125 J-0.0014
G3 X7.5858 Y9.113 I0.125 J0
G1 X7.6371 Y4.4311
G3 X7.8871 Y4.4325 I0.125 J0.0014
G3 X7.8871 Y4.4339 I-0.125 J0
G1 Z-0.375 F30
G1 X7.8358 Y9.1157 F60
G3 X7.5858 Y9.1144 I-0.125 J-0.0014
G3 X7.5858 Y9.113 I0.125 J0
G1 X7.6371 Y4.4311
G3 X7.8871 Y4.4325 I0.125 J0.0014
G3 X7.8871 Y4.4339 I-0.125 J0

(profile 5)
G0 Z0.5
G0 X7.8871 Y4.4339
G1 Z-0.13 F30
G1 X7.8358 Y9.1157 F60
G3 X7.5858 Y9.1144 I-0.125 J-0.0014
G3 X7.5858 Y9.113 I0.125 J0
G1 X7.6371 Y4.4311
G3 X7.8871 Y4.4325 I0.125 J0.0014
G3 X7.8871 Y4.4339 I-0.125 J0
G1 Z-0.26 F30
G1 X7.8358 Y9.1157 F60
G3 X7.5858 Y9.1144 I-0.125 J-0.0014
G3 X7.5858 Y9.113 I0.125 J0
G1 X7.6371 Y4.4311
G3 X7.8871 Y4.4325 I0.125 J0.0014
G3 X7.8871 Y4.4339 I-0.125 J0
G1 Z-0.375 F30
G1 X7.8358 Y9.1157 F60
G3 X7.5858 Y9.1144 I-0.125 J-0.0014
G3 X7.5858 Y9.113 I0.125 J0
G1 X7.6371 Y4.4311
G3 X7.8871 Y4.4325 I0.125 J0.0014
G3 X7.8871 Y4.4339 I-0.125 J0

(profile 6)
G0 Z0.5
G0 X7.8871 Y4.4339
G1 Z-0.13 F30
G1 X7.8358 Y9.1157 F60
G3 X7.5858 Y9.1144 I-0.125 J-0.0014
G3 X7.5858 Y9.113 I0.125 J0
G1 X7.6371 Y4.4311
G3 X7.8871 Y4.4325 I0.125 J0.0014
G3 X7.8871 Y4.4339 I-0.125 J0
G1 Z-0.26 F30
G1 X7.8358 Y9.1157 F60
G3 X7.5858 Y9.1144 I-0.125 J-0.0014
G3 X7.5858 Y9.113 I0.125 J0
G1 X7.6371 Y4.4311
G3 X7.8871 Y4.4325 I0.125 J0.0014
G3 X7.8871 Y4.4339 I-0.125 J0
G1 Z-0.375 F30
G1 X7.8358 Y9.1157 F60
G3 X7.5858 Y9.1144 I-0.125 J-0.0014
G3 X7.5858 Y9.113 I0.125 J0
G1 X7.6371 Y4.4311
G3 X7.8871 Y4.4325 I0.125 J0.0014
G3 X7.8871 Y4.4339 I-0.125 J0
G0 Z0.5
G0 X10.5734 Y4.4099
G1 Z-0.13 F30
G1 X10.8679 Y9.0371 F60
G3 X10.8682 Y9.045 I-0.1247 J0.0079
G3 X10.6184 Y9.053 I-0.125 J0
G1 X10.6183 Y9.0518
G1 X10.6181 Y9.0483
G1 X10.6177 Y9.0425
G1 X10.6172 Y9.0344
G1 X10.6166 Y9.0241
G1 X10.6158 Y9.0115
G1 X10.6148 Y8.9969
G1 X10.6137 Y8.9801
G1 X10.6125 Y8.9612
G1 X10.6112 Y8.9402
G1 X10.6097 Y8.9173
G1 X10.6081 Y8.8924
G1 X10.6064 Y8.8656
G1 X10.6046 Y8.8368
G1 X10.6026 Y8.8062
G1 X10.6005 Y8.7738
G1 X10.5984 Y8.7396
G1 X10.5961 Y8.7037
G1 X10.5936 Y8.666
G1 X10.5911 Y8.6267
G1 X10.5885 Y8.5857
G1 X10.5858 Y8.5431
G1 X10.583 Y8.499
G1 X10.58 Y8.4534
G1 X10.577 Y8.4062
G1 X10.5739 Y8.3576
G1 X10.5707 Y8.3076
G1 X10.5674 Y8.2563
G1 X10.564 Y8.2035
G1 X10.5606 Y8.1495
G1 X10.557 Y8.0942
G1 X10.5534 Y8.0377
G1 X10.5497 Y7.98
G1 X10.546 Y7.9212
G1 X10.5421 Y7.8612
G1 X10.5382 Y7.8002
G1 X10.5343 Y7.7381
G1 X10.5302 Y7.675
G1 X10.522 Y7.546
G1 X10.5135 Y7.4133
G1 X10.5048 Y7.2775
G1 X10.4959 Y7.1386
G1 X10.4868 Y6.9971
G1 X10.4776 Y6.8531
G1 X10.4683 Y6.7071
G1 X10.4588 Y6.5594
G1 X10.4493 Y6.4101
G1 X10.4299 Y6.1083
G1 X10.4105 Y5.8041
G1 X10.391 Y5.4999
G1 X10.3717 Y5.1981
G1 X10.3621 Y5.0488
G1 X10.3527 Y4.901
G1 X10.3433 Y4.755
G1 X10.3341 Y4.6111
G1 X10.3251 Y4.4696
G3 X10.3249 Y4.4648 I0.1247 J-0.008
G1 X10.3237 Y4.421
G3 X10.3237 Y4.4178 I0.125 J-0.0032
G3 X10.5734 Y4.4099 I0.125 J0
G1 Z-0.26 F30
G1 X10.8679 Y9.0371 F60
G3 X10.8682 Y9.045 I-0.1247 J0.0079
G3 X10.6184 Y9.053 I-0.125 J0
G1 X10.6183 Y9.0518
G1 X10.6181 Y9.0483
G1 X10.6177 Y9.0425
G1 X10.6172 Y9.0344
G1 X10.6166 Y9.0241
G1 X10.6158 Y9.0115
G1 X10.6148 Y8.9969
G1 X10.6137 Y8.9801
G1 X10.6125 Y8.9612
G1 X10.6112 Y8.9402
G1 X10.6097 Y8.9173
G1 X10.6081 Y8.8924
G1 X10.6064 Y8.8656
G1 X10.6046 Y8.8368
G1 X10.6026 Y8.8062
G1 X10.6005 Y8.7738
G1 X10.5984 Y8.7396
G1 X10.5961 Y8.7037
G1 X10.5936 Y8.666
G1 X10.5911 Y8.6267
G1 X10.5885 Y8.5857
G1 X10.5858 Y8.5431
G1 X10.583 Y8.499
G1 X10.58 Y8.4534
G1 X10.577 Y8.4062
G1 X10.5739 Y8.3576
G1 X10.5707 Y8.3076
G1 X10.5674 Y8.2563
G1 X10.564 Y8.2035
G1 X10.5606 Y8.1495
G1 X10.557 Y8.0942
G1 X10.5534 Y8.0377
G1 X10.5497 Y7.98
G1 X10.546 Y7.9212
G1 X10.5421 Y7.8612
G1 X10.5382 Y7.8002
G1 X10.5343 Y7.7381
G1 X10.5302 Y7.675
G1 X10.522 Y7.546
G1 X10.5135 Y7.4133
G1 X10.5048 Y7.2775
G1 X10.4959 Y7.1386
G1 X10.4868 Y6.9971
G1 X10.4776 Y6.8531
G1 X10.4683 Y6.7071
G1 X10.4588 Y6.5594
G1 X10.4493 Y6.4101
G1 X10.4299 Y6.1083
G1 X10.4105 Y5.8041
G1 X10.391 Y5.4999
G1 X10.3717 Y5.1981
G1 X10.3621 Y5.0488
G1 X10.3527 Y4.901
G1 X10.3433 Y4.755
G1 X10.3341 Y4.6111
G1 X10.3251 Y4.4696
G3 X10.3249 Y4.4648 I0.1247 J-0.008
G1 X10.3237 Y4.421
G3 X10.3237 Y4.4178 I0.125 J-0.0032
G3 X10.5734 Y4.4099 I0.125 J0
G1 Z-0.375 F30
G1 X10.8679 Y9.0371 F60
G3 X10.8682 Y9.045 I-0.1247 J0.0079
G3 X10.6184 Y9.053 I-0.125 J0
G1 X10.6183 Y9.0518
G1 X10.6181 Y9.0483
G1 X10.6177 Y9.0425
G1 X10.6172 Y9.0344
G1 X10.6166 Y9.0241
G1 X10.6158 Y9.0115
G1 X10.6148 Y8.9969
G1 X10.6137 Y8.9801
G1 X10.6125 Y8.9612
G1 X10.6112 Y8.9402
G1 X10.6097 Y8.9173
G1 X10.6081 Y8.8924
G1 X10.6064 Y8.8656
G1 X10.6046 Y8.8368
G1 X10.6026 Y8.8062
G1 X10.6005 Y8.7738
G1 X10.5984 Y8.7396
G1 X10.5961 Y8.7037
G1 X10.5936 Y8.666
G1 X10.5911 Y8.6267
G1 X10.5885 Y8.5857
G1 X10.5858 Y8.5431
G1 X10.583 Y8.499
G1 X10.58 Y8.4534
G1 X10.577 Y8.4062
G1 X10.5739 Y8.3576
G1 X10.5707 Y8.3076
G1 X10.5674 Y8.2563
G1 X10.564 Y8.2035
G1 X10.5606 Y8.1495
G1 X10.557 Y8.0942
G1 X10.5534 Y8.0377
G1 X10.5497 Y7.98
G1 X10.546 Y7.9212
G1 X10.5421 Y7.8612
G1 X10.5382 Y7.8002
G1 X10.5343 Y7.7381
G1 X10.5302 Y7.675
G1 X10.522 Y7.546
G1 X10.5135 Y7.4133
G1 X10.5048 Y7.2775
G1 X10.4959 Y7.1386
G1 X10.4868 Y6.9971
G1 X10.4776 Y6.8531
G1 X10.4683 Y6.7071
G1 X10.4588 Y6.5594
G1 X10.4493 Y6.4101
G1 X10.4299 Y6.1083
G1 X10.4105 Y5.8041
G1 X10.391 Y5.4999
G1 X10.3717 Y5.1981
G1 X10.3621 Y5.0488
G1 X10.3527 Y4.901
G1 X10.3433 Y4.755
G1 X10.3341 Y4.6111
G1 X10.3251 Y4.4696
G3 X10.3249 Y4.4648 I0.1247 J-0.008
G1 X10.3237 Y4.421
G3 X10.3237 Y4.4178 I0.125 J-0.0032
G3 X10.5734 Y4.4099 I0.125 J0

(profile 7)
G0 Z0.5
G0 X7.8871 Y4.4339
G1 Z-0.13 F30
G1 X7.8358 Y9.1157 F60
G3 X7.5858 Y9.1144 I-0.125 J-0.0014
G3 X7.5858 Y9.113 I0.125 J0
G1 X7.6371 Y4.4311
G3 X7.8871 Y4.4325 I0.125 J0.0014
G3 X7.8871 Y4.4339 I-0.125 J0
G1 Z-0.26 F30
G1 X7.8358 Y9.1157 F60
G3 X7.5858 Y9.1144 I-0.125 J-0.0014
G3 X7.5858 Y9.113 I0.125 J0
G1 X7.6371 Y4.4311
G3 X7.8871 Y4.4325 I0.125 J0.0014
G3 X7.8871 Y4.4339 I-0.125 J0
G1 Z-0.375 F30
G1 X7.8358 Y9.1157 F60
G3 X7.5858 Y9.1144 I-0.125 J-0.0014
G3 X7.5858 Y9.113 I0.125 J0
G1 X7.6371 Y4.4311
G3 X7.8871 Y4.4325 I0.125 J0.0014
G3 X7.8871 Y4.4339 I-0.125 J0
G0 Z0.5
M5
M30
